X:261
T: Summer Hill
N: O'Farrell's Pocket Companion v.3 (Sky ed. p.121)
M: 4/4
L: 1/8
R: hornpipe % strathspey
Q: 220
K: D
A|: d>FAF dF B2| dFAF BEEF| dFAF dF B2| ABAG FD D2 :|
d<dfd gefd| e<efd eBB>c| d<dfd gefd| efga fd d2|
d<dfd gefd| eefd eBBc| dfBd Ad F2| ABAG FD D2 ||
